X:10
T:The Gay Gordons
C:As played by All Star Ceili Band (transcribed by Anna Nemeth)
M:4/4
L:1/8
Q:1/4=100
K:Amaj
e       |{c}A>c     ec/A/ d/c/d/e/ fe/d/|c/A/e/A/ c/A/e/A/ c/B/B/A/ B>{ce}z   |A>c        ec/A/ d/c/d/e/ fe/d/|c/e/a/e/ c/e/d/B/ cA A :|
(3e/f/g/|a/>g/a/>f/ ec/A/ d/c/d/e/ fe/d/|c/A/e/A/ c/A/e/A/ c/B/B/A/ B(3e/f/g/ |a/>g/a/>f/ ec/A/ d/c/d/e/ fe/d/|c/e/a/e/ c/e/d/B/ cA A :|
